!!!!SEGMENT: pl-wtm--r-2548--003_hertz-michal--jak-wam-sie-podoba-no-3.krn
!!!cenid: 18xx:3110
!!!COM: Hertz, Michał
!!!COM-rismid: pe41023359
!!!CDT: 1844/09/28-~1918
!!!CNT: Polish
!!!GTL: Jak wam się podoba
!!!OTL: No. 3
!!!PDT:
!!!AGN:
!!!SMS-siglum: PL-Wtm
!!!SMS-shelfmark: R 2548
!!!SMS-shelfwork: 003 G
!!!SMS-variant:
!!!SMS-altvar:
!!!NIFC-rismid: 1001082244
!!!URL-scan: http://repozytorium.nifc.pl/skany/pl-wtm-nut--r2548
!!!ONB-nifc:
!!!OMD: Allegro mod. triomphale
!!!key: F
**kern	**kern	**dynam
*part1	*part1	*part1
*staff2	*staff1	*
*I"Piano	*I"Piano	*
*Ipiano	*Ipiano	*
*ICklav	*ICklav	*
*clefF4	*clefG2	*
*k[b-]	*k[b-]	*
*F:	*F:	*
*M4/4	*M4/4	*
*met(c)	*met(c)	*
*all\right	*all\right	*
=1	=1	=1
*	*2\right	*
!	!	!LO:DY:rj
(8.C\L 8.c	[<2ee\ [<2gg [<2ccc [>2eee	ff
16BBn\Jk 16Bn	.	.
*Xtuplet	*	*
12BB-X\L 12B-X	.	.
12AA\ 12A	.	.
12GG\J) 12G	.	.
4..C\ 4..c	8.ee\L] 8.gg] 8.ccc] 8.eee]	.
.	16ff\Jk 16fff	.
.	[<4gg\ [<4ccc [<4eee [>4ggg	.
16GG\ 16G	.	.
=2	=2	=2
(8.C\L 8.c	2gg\_< 2ccc_< 2eee_< 2ggg_>	.
16BBn\Jk 16Bn	.	.
12BB-X\L 12B-X	.	.
12AA\ 12A	.	.
12GG\J) 12G	.	.
4..C\ 4..c	8.gg\L] 8.ccc] 8.eee] 8.ggg]	.
.	16aa\Jk 16aaa	.
.	4bb-\ 4ggg 4bbb-	.
16GG\ 16G	.	.
=3	=3	=3
(8GG#X\L 8G#X	2b-\ 2dd 2bb-	.
8FF##X\J) 8F##X	.	.
4GG#\ 4G#	.	.
4GG#\ 4A	[<4a\ [<4cc#X [>4aa	.
4AAA/ 4AA	(16a\LL] 16cc#] 16aa]	.
.	16g\ 16ee 16gg	.
.	16f\ 16dd 16ff	.
.	16e\JJ) 16cc# 16ee	.
!!LO:PB:g=original
=4	=4	=4
*	*^	*
((4DD\ 4D	(8g\L 8gg	2a/	.
.	8f\ 8ff	.	.
4FF\)) 4F	8e\ 8ee	.	.
.	16r	.	.
.	16B-\J) 16dd	.	.
((4GG\ 4G	(<8cc/L	2d\	.
.	8b-/)	.	.
4BB-\)) 4B-	8a'</	.	.
.	8g'</J	.	.
*	*v	*v	*
=5	=5	=5
4..FF\ 4..G	(>4..f\ 4..b- 4..dd	.
16GG\ 16G	16f\) 16b- 16dd-X	.
4C\ 4c	[<4e\ [<4b- [>4cc	.
!	!LO:TUP:a:problem:klamra łukowa	!
4CC/ 4C	12e\L] 12b-] 12cc]	.
.	12e\ 12b- 12cc	.
.	12e\J 12cc#X	.
=6	=6	=6
*rep	*rep	*
4..FF\ 4..G	(>4..f\ 4..b- 4..dd	.
16GG\ 16G	16f\) 16b- 16dd-X	.
4C\ 4c	[<4e\ [<4b- [>4cc	.
!	!LO:TUP:a:problem:klamra łukowa	!
4CC/ 4C	12e\L] 12b-] 12cc]	.
.	12e\ 12b- 12cc	.
.	12e\J 12cc#X	.
*Xrep	*Xrep	*
!!LO:LB:g=original
=7	=7	=7
4.GG\ 4.G	(8.e\L 8.b- 8.dd	.
.	16f\K 16b- 16dd-X 16ee	.
.	8d'\) 8b- 8cc	.
8GG\ 8G	8e'\J 8b- 8cc#X	.
*rep	*rep	*
4.GG\ 4.G	(8.e\L 8.b- 8.ddn	.
.	16f\K 16b- 16dd-X 16ee	.
.	8d'\) 8b- 8ccn	.
8GG\ 8G	8e'\J 8b- 8cc#X	.
*Xrep	*Xrep	*
=8	=8	=8
*2\right	*	*
[2GG\ [2G	(8.f\L 8.b- 8.dd	.
.	16f\K) 16b- 16dd-X	.
.	8e\ 8bn	.
!	!LO:TX:b:t=dis	!
.	8d#\J 8cc	.
8.GG\L] 8.G]	8.e\L 8.b-X 8.cc	.
16FF\Jk 16F	16f\Jk 16b- 16cc	.
(16EE\LL 16E	(16g\LL 16b- 16cc-X	.
16DD\ 16D	16g\ 16b- 16dd-	.
16CC\ 16C	16g\ 16b- 16ee	.
16C\JJ) 16c	16g\JJ) 16b- 16cc- 16gg	.
=9	=9	=9
*tuplet	*	*
!LO:TUP:a:problem:klamra łukowa	!	!
12F\L	4..f\ 4..a 4..cc 4..ff	.
12E\	.	.
12D\J	.	.
[4D\	.	.
.	32f/LLL	.
.	32f/JJJ	.
8.D\L]	4f/	.
16D-X\Jk	.	.
*	*Xtuplet	*
!LO:TUP:b:problem:klamra łukowa	!	!
12C/L	12f/L	.
12BB-/	12f/	.
12AA/J	12f/J	.
!!LO:LB:g=original
=10	=10	=10
!LO:TUP:a:problem:klamra łukowa	!	!
12F\L	4..f/ 4..a	.
12E\	.	.
12D\J	.	.
[4D\	.	.
.	32f/LLL 32a	.
.	32f/JJJ 32a	.
(>8.D\L]	4f/ 4a	.
16D-X\Jk)	.	.
*	*tuplet	*
!LO:TUP:a:problem:klamra łukowa	!LO:TUP:b:problem:klamra łukowa	!
12C\L	12f/L 12a	.
12BB-\	12f/ 12a	.
12AA\J	12f/J 12a	.
=11	=11	=11
!LO:TUP:a:problem:klamra łukowa	!	!
12F\L	4..f/ 4..a 4..cc	.
12E\	.	.
12E-X\J	.	.
[4D\	.	.
.	32f/LLL 32a	.
.	32f/JJJ 32a	.
!LO:TUP:a:problem:klamra łukowa	!	!
12D\L]	4f/ 4b-	.
12C\	.	.
12BB-\J	.	.
(8.BB-\L	(8.f\L 8.b- 8.dd	.
16D\Jk)	16f\Jk) 16b-	.
=12	=12	=12
*tremolo	*	*
(32FF\LLL	8f\ 8a 8cc 8ff	.
32F\	.	.
32FF\	.	.
32F\	.	.
32FF\	8r	.
32F\	.	.
32FF\	.	.
32F\	.	.
32FF\	[<4A/ [<4c [>4f	.
32F\	.	.
32FF\	.	.
32F\	.	.
32FF\	.	.
32F\	.	.
32FF\	.	.
32F\JJJ)	.	.
*Xtremolo	*	*
8FF/	8A/] 8c] 8f]	.
8r	8r	.
4r	4r	.
==	==	==
*-	*-	*-
!!!system-decoration: {(s1,s2)}
!!!RDF**kern: < = below
!!!RDF**kern: > = above
!!!ENC:Marta Opryszak
!!!END:2021-11-02
!!!ENC: Marta Chmielewska
!!!END: 2021-11-05
